images/header-img/div.framer-i3d0tu.svg

<svg width="95" height="74" viewBox="0 0 95 74" fill="none" xmlns="http://www.w3.org/2000/svg">
<path fill-rule="evenodd" clip-rule="evenodd" d="M24.3386 14.7947C24.4751 13.7609 24.5847 12.6395 24.7266 11.6198C24.7761 11.2643 24.8124 10.9214 24.856 10.5661L24.9534 9.77627C24.9713 9.64806 24.954 9.54186 25.0149 9.54186H26.8837L27.0291 10.7276C27.078 11.1269 27.1177 11.5133 27.1736 11.9142C27.2293 12.3145 27.2641 12.6985 27.3197 13.0989C27.3755 13.4997 27.4153 13.8861 27.4643 14.2856L27.9015 17.8414C27.9253 18.0218 27.9331 17.986 27.7441 17.9855H26.7492L26.5707 16.1337C26.5614 16.0615 26.5474 15.9619 26.5474 15.8746H25.324C25.3101 16.0415 25.2799 16.231 25.2707 16.3993C25.2541 16.6965 25.2019 17.139 25.1749 17.4599C25.1608 17.6274 25.1362 17.8182 25.1224 17.9855H23.9527L24.0141 17.4418C24.1326 16.585 24.2242 15.66 24.3385 14.7949L24.3386 14.7947ZM25.5852 13.2717C25.5597 13.4519 25.5582 13.6187 25.5353 13.8L25.4316 14.866H26.44L26.1344 11.3666C26.1249 11.2957 26.1183 11.1677 26.1173 11.1013C26.115 10.9291 26.0771 10.7397 26.0771 10.5636H25.8215C25.7663 10.5636 25.78 10.6139 25.7809 10.6709L25.7534 11.0872C25.7139 11.6038 25.6573 12.2217 25.6331 12.7281L25.5852 13.2718V13.2717ZM33.9152 13.75C33.9152 14.4512 33.933 15.1483 33.9416 15.848C33.9428 15.9336 33.9559 15.9988 33.9557 16.103C33.9555 16.301 33.9596 16.6707 34.0317 16.8203C34.1689 17.1058 34.4788 17.1248 34.7893 17.1248H40.8126C40.9838 17.1248 41.1524 17.1146 41.2815 17.0694C41.3799 17.0347 41.4517 16.983 41.5139 16.8984C41.6513 16.7112 41.6293 16.3498 41.6323 16.1158C41.6332 16.0324 41.6465 15.9753 41.6462 15.8744C41.6447 15.2151 41.6731 14.4949 41.6731 13.8307C41.6731 13.6439 41.6598 13.5065 41.6598 13.3199L41.6462 11.7737C41.6464 11.5978 41.6326 11.4502 41.6328 11.2628C41.6331 10.7504 41.5751 10.4024 40.9471 10.4024H34.628C34.2907 10.4024 34.0692 10.5319 33.9983 10.7945C33.9735 10.8864 33.9551 11.1692 33.9556 11.2627C33.9565 11.4418 33.9421 11.5802 33.9424 11.7469C33.943 12.3983 33.9153 13.092 33.9153 13.7501L33.9152 13.75ZM64.1281 13.0128L63.9512 14.866H64.9595L64.9063 14.3277C64.8806 13.8645 64.7944 13.3262 64.7713 12.8493C64.7685 12.79 64.7595 12.7934 64.7578 12.7284C64.7557 12.649 64.7508 12.5316 64.7387 12.4517L64.6156 10.8269C64.6058 10.7606 64.5966 10.6259 64.5966 10.5637H64.3141C64.3022 10.6148 64.2883 10.7732 64.287 10.8323L64.2327 11.6519C64.1995 12.076 64.1717 12.5973 64.128 13.0128L64.1281 13.0128ZM68.2266 10.5636V13.9383H68.5897C69.2493 13.9383 69.4382 13.7327 69.4367 13.1181C69.4365 13.0091 69.4505 12.9425 69.4506 12.8498V11.6388C69.4505 11.5479 69.4364 11.4894 69.4367 11.3838C69.4393 10.4888 68.9851 10.5636 68.2266 10.5636ZM28.4702 14.866H29.5188C29.5813 14.866 29.5454 14.9461 29.5455 15.027C29.5455 15.0934 29.5503 15.1774 29.545 15.2417C29.5145 15.6122 29.5409 16.0276 29.5452 16.3991C29.5508 16.8679 29.7556 17.1306 30.2432 17.1191C30.8126 17.1055 30.8515 16.8061 30.9018 16.3564C30.9105 16.2783 30.8968 16.1973 30.9074 16.12C30.9328 15.9349 30.9032 15.7038 30.9038 15.5248L30.8883 15.1636C30.8674 14.9686 30.811 14.7055 30.7179 14.5811C30.3997 14.1563 29.2004 14.3631 28.7093 13.578C28.3453 12.9959 28.4164 12.0782 28.4164 11.3568C28.4164 10.7745 28.5227 10.2463 28.7958 9.93465C28.8686 9.85163 28.9325 9.78385 29.039 9.72069C29.3058 9.5628 29.6727 9.48027 30.0453 9.46106H30.3898C30.654 9.47466 30.9061 9.51919 31.1107 9.59026C31.3299 9.66644 31.5018 9.79152 31.634 9.95428C32.1341 10.5701 31.9928 11.7547 31.9928 12.5937H30.8903C30.8903 12.3053 30.9038 12.0626 30.9038 11.7735C30.9038 11.4357 30.9441 10.8429 30.7774 10.6226C30.5877 10.3716 30.1211 10.3525 29.8591 10.4735C29.7611 10.5189 29.6993 10.5916 29.6533 10.6845C29.6022 10.7872 29.5796 10.8805 29.5627 11.0105C29.554 11.0779 29.5573 11.1559 29.5496 11.2125C29.5408 11.2766 29.5459 11.3454 29.5459 11.4107C29.5459 11.8734 29.5096 12.4595 29.6744 12.8552C29.8963 13.3881 30.8569 13.1381 31.5049 13.6868C31.9463 14.0604 32.0467 14.7879 32.0467 15.4172C32.0467 16.4212 32.1187 17.5403 31.1749 17.92C30.9638 18.005 30.6941 18.0525 30.415 18.0658H30.0813C29.818 18.0533 29.5635 18.0116 29.3592 17.9433C28.9551 17.8083 28.7351 17.5454 28.5891 17.1537C28.4065 16.6637 28.4359 15.8452 28.4429 15.2822C28.4439 15.1952 28.4704 15.0222 28.4704 14.8659L28.4702 14.866ZM32.8506 16.7104C32.8093 16.3707 32.8111 15.9746 32.8129 15.6188C32.8135 15.493 32.7993 15.3948 32.7993 15.2559C32.7994 14.7631 32.7898 14.2319 32.7898 13.7635C32.7898 13.2951 32.7993 12.7639 32.7993 12.2712C32.7993 12.0237 32.8128 11.7927 32.8128 11.5318C32.8128 10.9152 32.8454 10.1961 33.3351 9.79539C33.6247 9.55827 34.1151 9.46123 34.5069 9.46123H41.068C41.6274 9.46123 42.2433 9.60865 42.5245 10.1156C42.6068 10.2639 42.6693 10.4469 42.7074 10.6318C42.7363 10.7717 42.7577 10.9575 42.7616 11.1154C42.7634 11.1841 42.7759 11.1981 42.776 11.2759C42.7762 11.3924 42.776 11.5095 42.7754 11.626C42.7748 11.7413 42.789 11.8322 42.789 11.9619C42.789 12.4335 42.8025 12.8691 42.8025 13.3468L42.789 15.5921C42.7891 15.7238 42.775 15.8028 42.7755 15.9282C42.7769 16.2985 42.7713 16.5411 42.7047 16.906C42.6399 17.262 42.4747 17.5793 42.184 17.7836C41.9317 17.9611 41.5014 18.0659 41.068 18.0659H34.5069C33.5445 18.0659 32.9672 17.6675 32.8507 16.7104H32.8506ZM43.666 16.9332C43.5728 16.5356 43.5683 15.7977 43.5817 15.3495L43.608 14.9994C43.6122 14.9364 43.5873 14.8659 43.6493 14.8659H44.6979C44.6979 14.968 44.6839 15.0127 44.6843 15.1076L44.6711 15.592C44.6717 15.8664 44.6677 16.5212 44.7398 16.7333C44.7834 16.8619 44.8341 16.944 44.9422 17.015C45.1313 17.139 45.5308 17.1468 45.7292 17.0533C46.0708 16.8925 46.0559 16.3573 46.0559 15.9415C46.0559 15.5298 46.0726 14.8737 45.845 14.5659C45.7301 14.4109 45.5344 14.3691 45.3271 14.3174C45.1178 14.265 44.9239 14.217 44.7191 14.1591C44.4277 14.0768 44.0665 13.8964 43.8937 13.6401C43.4896 13.041 43.5551 12.1675 43.5551 11.4239C43.5551 11.0137 43.5968 10.505 43.788 10.1644C43.8322 10.0855 43.8468 10.0426 43.9159 9.95634C44.0512 9.7874 44.2321 9.66537 44.4609 9.58696C44.6762 9.51309 44.9669 9.46106 45.2492 9.46106C45.8034 9.46106 46.3754 9.49742 46.7583 9.92839C47.2128 10.4397 47.145 11.3858 47.145 12.0963C47.145 12.2793 47.1315 12.412 47.1315 12.5937H46.029C46.029 12.2188 46.0829 11.0725 46.004 10.8036C45.9725 10.6957 45.9143 10.5958 45.8302 10.5337L45.6645 10.444C45.4157 10.3545 44.9291 10.3715 44.7784 10.7114C44.664 10.97 44.6835 11.5827 44.684 11.9354C44.6842 12.0163 44.6975 12.0329 44.6984 12.1092C44.702 12.4023 44.7138 12.6602 44.8455 12.9169C45.0977 13.4084 46.4661 13.1157 46.9343 14.0546C47.0991 14.3847 47.1852 14.8335 47.1852 15.323C47.1852 15.8452 47.2062 16.3916 47.108 16.8861C47.0538 17.1595 46.9762 17.3255 46.8332 17.5391C46.5765 17.9222 45.9679 18.0658 45.4912 18.0658C44.5576 18.0658 43.8945 17.9067 43.6658 16.9332H43.666ZM48.2581 17.504C48.0726 17.2267 47.9743 16.832 47.9647 16.5067L47.9382 12.9432L47.9511 11.2891C47.9521 11.2143 47.9649 11.2034 47.9657 11.1289C47.9697 10.7229 48.0781 10.3003 48.3262 9.9969C48.3434 9.97604 48.3535 9.96796 48.3703 9.94702C48.5061 9.778 48.709 9.66628 48.912 9.58779C49.3338 9.42453 50.1702 9.42338 50.5601 9.56866C50.6862 9.61565 50.9076 9.70379 51.0069 9.79391C51.0938 9.87265 51.1495 9.91363 51.2218 10.023C51.3216 10.1738 51.382 10.2969 51.4356 10.4813C51.5837 10.9898 51.5415 11.6917 51.5415 12.2576C51.5415 12.3884 51.5279 12.4649 51.5279 12.5937H50.3852L50.3987 11.2089C50.3987 10.9062 50.3811 10.641 50.1407 10.4989C50.0752 10.4601 49.9813 10.4298 49.8978 10.419C49.4988 10.3673 49.1913 10.4771 49.1152 10.8934L49.094 11.1951C49.0909 11.3001 49.0943 11.4122 49.0943 11.5181C49.0945 11.6406 49.0802 11.7166 49.0807 11.8272L49.0675 12.782C49.0675 13.4426 49.0465 14.3881 49.081 15.0272L49.0805 15.7268C49.0807 15.8134 49.0951 15.8471 49.0946 15.9412C49.091 16.5731 49.0279 17.1246 49.7666 17.1246C50.2562 17.1246 50.4388 16.8754 50.4388 16.3852V14.8793H51.5817C51.5817 15.3366 51.6121 16.2048 51.5572 16.6431C51.519 16.9477 51.4442 17.2243 51.3102 17.4314C51.2361 17.546 51.1721 17.6277 51.0675 17.7131C51.0119 17.7587 50.9797 17.7782 50.9176 17.8185C50.6892 17.9665 50.2943 18.0503 49.883 18.0658H49.6038C49.2016 18.0507 48.8162 17.9696 48.5885 17.8188C48.4416 17.7214 48.3555 17.6498 48.258 17.5039L48.2581 17.504ZM52.4153 17.9447V9.5821C52.4153 9.55118 52.4247 9.54178 52.4557 9.54178H53.5583V13.1988H54.7817V9.54178H55.9245V17.9851H54.7817V14.2205H53.5583V17.9851H52.4557C52.4247 17.9851 52.4153 17.9757 52.4153 17.9447ZM56.906 17.9851V9.54178H58.0086C58.0395 9.54178 58.0488 9.55118 58.0488 9.5821V17.9447C58.0488 17.9757 58.0395 17.9851 58.0086 17.9851H56.906ZM59.0169 17.9851V9.54178H60.1598V16.9633H62.042V17.9851H59.0169ZM63.2479 11.6217L63.4898 9.64492C63.4957 9.59034 63.4788 9.54178 63.5345 9.54178H65.4033C65.4051 9.62266 65.4314 9.75978 65.4411 9.84L65.5499 10.7261C65.5691 10.9297 65.595 11.1215 65.6225 11.3258C65.7012 11.9144 65.759 12.5187 65.8393 13.0989C65.8947 13.4995 65.9347 13.8848 65.9838 14.2855C66.0315 14.6743 66.085 15.0759 66.1292 15.4711C66.1516 15.6699 66.1741 15.8642 66.2022 16.0704C66.2829 16.6626 66.3396 17.2513 66.421 17.8414C66.4457 18.0198 66.4531 17.9859 66.2637 17.9853H65.2688C65.2552 17.8212 65.2223 17.6277 65.2151 17.4608C65.2079 17.2931 65.1801 17.0956 65.1634 16.9344L65.0672 15.8744H63.8437L63.7651 16.6697C63.7554 16.7618 63.7567 16.8394 63.7438 16.9308L63.6953 17.4605C63.686 17.6287 63.6558 17.8183 63.642 17.9852H62.4722L62.7278 15.8609C62.7668 15.509 62.812 15.1391 62.8581 14.7947C62.9059 14.438 62.9401 14.0979 62.9873 13.7406C63.0789 13.0459 63.1563 12.3158 63.248 11.6218L63.2479 11.6217ZM67.0838 17.9447V9.5821C67.0838 9.55118 67.0932 9.54178 67.1242 9.54178H68.5359C68.9122 9.54178 69.2621 9.56297 69.5626 9.64435C70.4192 9.87677 70.5824 10.675 70.5795 11.4509C70.579 11.5615 70.5937 11.6151 70.5931 11.7196C70.5926 11.8137 70.593 11.908 70.593 12.0021C70.593 12.7991 70.6679 13.8539 70.2243 14.4166C70.1344 14.5309 69.9393 14.7123 69.7997 14.7448C69.8049 14.8075 69.8373 14.8976 69.8551 14.9584C69.8738 15.0225 69.8914 15.0863 69.9119 15.1569C69.9826 15.4017 70.7076 17.9099 70.7139 17.9851H69.5039L68.8047 15.296C68.7883 15.2306 68.7742 15.1729 68.7565 15.1023C68.7338 15.0122 68.7312 14.9465 68.6838 14.9465H68.2265V17.9851H67.1241C67.0932 17.9851 67.0838 17.9757 67.0838 17.9447L67.0838 17.9447ZM74.6036 6.95508H20.0629C19.1554 6.95508 18.4128 7.69746 18.4128 8.60507V18.922C18.4128 19.8295 19.1553 20.5721 20.0629 20.5721H74.6036C75.5111 20.5721 76.2537 19.8296 76.2537 18.922V8.60507C76.2537 7.69754 75.5112 6.95508 74.6036 6.95508Z" fill="white"/>
<path d="M20.8795 54.6578H24.4617C25.3802 54.6578 25.8394 55.1171 25.8394 56.0356V60.2241C25.8394 65.0004 23.4513 67.3885 18.675 67.3885H13.1639C8.38759 67.3885 5.99951 65.0003 5.99951 60.2241V30.464C5.99951 25.6876 8.38767 23.2996 13.1639 23.2996H18.675C23.4513 23.2996 25.8394 25.6877 25.8394 30.464V34.6525C25.8394 35.571 25.3802 36.0302 24.4617 36.0302H20.8795C19.961 36.0302 19.5018 35.571 19.5018 34.6525V33.3849C19.5018 31.805 19.2996 30.7855 18.8955 30.3263C18.4913 29.867 17.4993 29.6374 15.9195 29.6374C14.56 29.6374 13.6232 29.8486 13.1088 30.2712C12.5943 30.6937 12.3372 31.7316 12.3372 33.3849V57.3031C12.3372 58.9564 12.5943 59.9945 13.1088 60.4169C13.6231 60.8394 14.56 61.0506 15.9195 61.0506C16.6175 61.0506 17.1227 61.0323 17.435 60.9956C17.7473 60.9589 18.0964 60.8303 18.4821 60.6098C18.8679 60.3894 19.1343 60.0128 19.2812 59.48C19.4281 58.9473 19.5017 58.2216 19.5017 57.3031V56.0356C19.5017 55.1171 19.961 54.6578 20.8795 54.6578ZM28.0444 65.4597V24.6773C28.0444 23.7588 28.5036 23.2996 29.4221 23.2996H33.0043C33.9228 23.2996 34.3821 23.7588 34.3821 24.6773V59.3974C34.3821 60.0219 34.5015 60.4537 34.7403 60.6925C34.9792 60.9313 35.4108 61.0507 36.0354 61.0507H42.1528C43.0713 61.0507 43.5305 61.51 43.5305 62.4285V66.0107C43.5305 66.9292 43.0713 67.3885 42.1528 67.3885H29.9732C29.2384 67.3885 28.7332 67.2507 28.4576 66.9752C28.1821 66.6996 28.0444 66.1945 28.0444 65.4597ZM58.7416 56.752V24.6773C58.7416 23.7588 59.2009 23.2996 60.1194 23.2996H63.7016C64.6201 23.2996 65.0794 23.7588 65.0794 24.6773V60.2241C65.0794 65.0004 62.6912 67.3885 57.915 67.3885H52.3487C47.5724 67.3885 45.1843 65.0003 45.1843 60.2241V24.6773C45.1843 23.7588 45.6436 23.2996 46.5621 23.2996H50.1443C51.0627 23.2996 51.5221 23.7588 51.5221 24.6773V56.752C51.5221 58.4422 51.7792 59.5811 52.2936 60.1689C52.808 60.7568 53.6898 61.0507 54.939 61.0507H55.2696C56.5922 61.0507 57.5016 60.766 57.9976 60.1965C58.4935 59.6271 58.7416 58.479 58.7416 56.752ZM68.3866 65.4597V25.2285C68.3866 24.4937 68.5244 23.9884 68.7999 23.7129C69.0755 23.4374 69.5807 23.2996 70.3155 23.2996H80.5662C85.3425 23.2996 87.7306 25.6877 87.7306 30.464V40.1636C87.7306 41.0454 87.4183 42.1108 86.7936 43.36C86.6099 43.6907 86.6467 44.0031 86.9039 44.297C88.0796 45.5461 88.6675 47.0158 88.6675 48.7058V60.2241C88.6675 65.0004 86.2793 67.3885 81.5031 67.3885H70.3155C69.0296 67.3885 68.3866 66.7456 68.3866 65.4597ZM78.9128 47.6036H76.3777C75.7531 47.6036 75.3214 47.723 75.0825 47.9619C74.8438 48.2007 74.7243 48.6324 74.7243 49.257V59.3974C74.7243 60.022 74.8438 60.4538 75.0825 60.6926C75.3214 60.9314 75.753 61.0508 76.3777 61.0508H78.3066C79.7763 61.0508 80.8142 60.8304 81.4204 60.3895C82.0266 59.9486 82.3296 58.9198 82.3296 57.3032V51.3512C82.3296 49.8449 82.0633 48.8528 81.5306 48.3752C80.9978 47.8976 80.1253 47.6404 78.9128 47.6036ZM77.3697 29.6374H76.3777C75.7531 29.6374 75.3214 29.7568 75.0825 29.9956C74.8438 30.2344 74.7243 30.6661 74.7243 31.2908V39.6125C74.7243 40.2004 74.8438 40.6229 75.0825 40.8801C75.3214 41.1373 75.753 41.2658 76.3777 41.2658H77.3697C78.8394 41.2658 79.8773 41.0454 80.4834 40.6045C81.0898 40.1636 81.3928 39.1348 81.3928 37.5182V33.3848C81.3928 31.7682 81.0897 30.7395 80.4834 30.2986C79.8772 29.8577 78.8393 29.6374 77.3697 29.6374Z" fill="white"/>
</svg>

<svg xmlns="http://www.w3.org/2000/svg" width="95" height="74" fill="none"><path fill="#fff" fill-rule="evenodd" d="M24.339 14.795c.136-1.034.246-2.155.388-3.175.05-.356.085-.699.129-1.054l.097-.79c.018-.128.001-.234.062-.234h1.869l.145 1.186c.049.399.089.785.145 1.186.055.4.09.784.146 1.185.055.4.095.787.144 1.187l.438 3.555c.023.18.031.145-.158.144h-.995l-.178-1.851c-.01-.073-.024-.172-.024-.26h-1.223c-.014.167-.044.357-.053.525-.017.297-.07.74-.096 1.06-.014.168-.039.36-.053.526h-1.17l.062-.543c.119-.857.21-1.782.325-2.647Zm1.246-1.523c-.025.18-.027.347-.05.528l-.103 1.066h1.008l-.306-3.5a2.876 2.876 0 0 1-.017-.265c-.002-.172-.04-.361-.04-.537h-.256c-.055 0-.041.05-.04.107l-.028.416c-.04.517-.096 1.135-.12 1.641l-.048.544Zm8.33.478c0 .701.018 1.398.027 2.098 0 .086.014.15.014.255 0 .198.004.568.076.717.137.286.447.305.757.305h6.024c.17 0 .34-.01.468-.056a.462.462 0 0 0 .233-.17c.137-.188.115-.55.118-.783.001-.084.015-.14.014-.242-.001-.659.027-1.38.027-2.043 0-.187-.013-.324-.013-.511l-.014-1.546c0-.176-.013-.324-.013-.511 0-.513-.058-.86-.686-.86h-6.319c-.337 0-.559.129-.63.391a2.912 2.912 0 0 0-.042.469c0 .179-.014.317-.014.484.001.651-.027 1.345-.027 2.003Zm30.213-.737-.177 1.853h1.009l-.054-.538c-.025-.463-.112-1.002-.135-1.479-.002-.059-.011-.056-.013-.12a2.581 2.581 0 0 0-.02-.277l-.122-1.625a2.45 2.45 0 0 1-.02-.263h-.282c-.012.05-.026.21-.027.268l-.054.82c-.034.424-.061.945-.105 1.36Zm4.099-2.45v3.375h.363c.66 0 .848-.205.847-.82 0-.109.014-.175.014-.268v-1.211c0-.091-.015-.15-.014-.255.002-.895-.452-.82-1.21-.82ZM28.47 14.867h1.049c.062 0 .026.08.027.161 0 .066.004.15-.001.215-.03.37-.004.786 0 1.157.006.469.21.732.698.72.57-.014.609-.313.659-.763.008-.078-.005-.159.005-.236.026-.185-.004-.416-.003-.595l-.016-.361c-.02-.195-.077-.458-.17-.583-.318-.425-1.518-.218-2.009-1.003-.364-.582-.293-1.5-.293-2.221 0-.582.107-1.11.38-1.422a.947.947 0 0 1 .243-.214c.267-.158.634-.24 1.006-.26h.345c.264.014.516.058.72.13.22.075.392.2.524.363.5.616.359 1.8.359 2.64H30.89c0-.289.014-.531.014-.82 0-.338.04-.931-.127-1.151-.19-.251-.656-.27-.918-.15a.425.425 0 0 0-.206.211.954.954 0 0 0-.09.327c-.009.067-.006.145-.013.202-.01.064-.004.132-.004.198 0 .462-.036 1.049.128 1.444.222.533 1.183.283 1.83.832.442.373.543 1.1.543 1.73 0 1.004.072 2.123-.872 2.503-.211.085-.48.132-.76.146h-.334a2.761 2.761 0 0 1-.722-.123c-.404-.135-.624-.398-.77-.79-.182-.49-.153-1.308-.146-1.87 0-.088.027-.26.027-.417Zm4.38 1.844a9.122 9.122 0 0 1-.037-1.091c0-.126-.014-.224-.014-.363 0-.493-.01-1.024-.01-1.492 0-.469.01-1 .01-1.493 0-.247.014-.478.014-.74 0-.616.032-1.335.522-1.736.29-.237.78-.334 1.172-.334h6.561c.56 0 1.175.148 1.457.655.082.148.144.33.182.516.03.14.05.325.055.483.001.07.014.083.014.16v.351c-.001.115.013.206.013.336 0 .472.014.907.014 1.385l-.014 2.245c0 .132-.014.21-.014.336a4.71 4.71 0 0 1-.07.978c-.065.356-.23.673-.521.878-.252.177-.683.282-1.116.282h-6.561c-.962 0-1.54-.398-1.656-1.356Zm10.816.223c-.093-.397-.098-1.135-.084-1.583l.026-.35c.004-.064-.02-.134.041-.134h1.049c0 .102-.014.147-.014.242l-.013.484c0 .274-.003.93.069 1.141.043.129.094.211.202.282.19.124.589.132.787.038.342-.16.327-.696.327-1.112 0-.411.017-1.067-.211-1.375-.115-.155-.31-.197-.518-.249-.21-.052-.403-.1-.608-.158-.291-.082-.653-.263-.825-.519-.404-.599-.339-1.473-.339-2.216 0-.41.042-.919.233-1.26.044-.079.059-.121.128-.208.135-.169.316-.29.545-.369.215-.074.506-.126.788-.126.554 0 1.126.036 1.51.467.454.512.386 1.458.386 2.168 0 .183-.014.316-.014.498H46.03c0-.375.054-1.521-.025-1.79a.51.51 0 0 0-.174-.27l-.166-.09c-.248-.09-.735-.073-.886.267-.114.259-.094.872-.094 1.224 0 .081.014.098.014.174.004.293.016.551.148.808.252.491 1.62.199 2.088 1.138.165.33.251.779.251 1.268 0 .522.021 1.069-.077 1.563-.054.274-.132.44-.275.653-.256.383-.865.527-1.342.527-.933 0-1.596-.16-1.825-1.133Zm4.592.571c-.185-.277-.284-.672-.293-.997l-.027-3.564.013-1.654c.001-.075.014-.086.015-.16.004-.406.112-.829.36-1.132.017-.021.027-.029.044-.05.136-.169.339-.28.542-.36.422-.162 1.258-.164 1.648-.018.126.047.348.135.447.225.087.079.143.12.215.229.1.15.16.274.214.458.148.509.105 1.21.105 1.777 0 .13-.013.207-.013.336h-1.143l.014-1.385c0-.303-.018-.568-.258-.71a.682.682 0 0 0-.243-.08c-.4-.052-.707.058-.783.474l-.021.302c-.003.105 0 .217 0 .323 0 .123-.014.199-.013.31l-.014.954c0 .66-.02 1.606.014 2.245v.7c0 .086.014.12.014.214-.004.632-.067 1.184.672 1.184.49 0 .672-.25.672-.74V14.88h1.143c0 .458.03 1.326-.025 1.764-.038.305-.113.581-.247.788a1.1 1.1 0 0 1-.242.282c-.056.046-.088.065-.15.105-.229.148-.624.232-1.035.248h-.28c-.401-.015-.787-.096-1.014-.247a1.017 1.017 0 0 1-.331-.315Zm4.157.44V9.583c0-.03.01-.04.04-.04h1.103v3.657h1.224V9.542h1.143v8.443h-1.143v-3.764h-1.224v3.764h-1.102c-.031 0-.04-.01-.04-.04Zm4.491.041V9.542h1.103c.03 0 .04.01.04.04v8.363c0 .03-.01.04-.04.04h-1.103Zm2.11 0V9.542h1.144v7.421h1.882v1.022h-3.025Zm4.232-6.363.242-1.977c.006-.055-.011-.103.044-.103h1.87c.001.08.027.218.037.298l.109.886c.02.204.045.395.073.6.078.588.136 1.193.216 1.773.056.4.096.786.145 1.187.047.388.101.79.145 1.185.023.199.045.393.073.6.08.592.138 1.18.219 1.77.025.179.032.145-.157.144h-.995c-.014-.164-.047-.357-.054-.524-.007-.168-.035-.365-.052-.527l-.096-1.06h-1.223l-.079.796c-.01.092-.008.17-.021.26l-.049.53c-.009.169-.04.358-.053.525h-1.17l.256-2.124c.039-.352.084-.722.13-1.066.048-.357.082-.697.13-1.054.09-.695.168-1.425.26-2.12Zm3.836 6.323V9.582c0-.03.01-.04.04-.04h1.412c.376 0 .726.021 1.027.102.856.233 1.02 1.031 1.016 1.807 0 .11.015.164.014.269v.282c0 .797.075 1.852-.369 2.415-.09.114-.285.295-.424.328.005.063.037.153.055.213l.057.199c.07.245.796 2.753.802 2.828h-1.21l-.7-2.689-.047-.194c-.023-.09-.026-.155-.073-.155h-.457v3.038h-1.103c-.03 0-.04-.01-.04-.04Zm7.52-10.99H20.063c-.908 0-1.65.742-1.65 1.65v10.317c0 .907.742 1.65 1.65 1.65h54.54c.908 0 1.65-.742 1.65-1.65V8.605c0-.907-.742-1.65-1.65-1.65Z" clip-rule="evenodd"/><path fill="#fff" d="M20.88 54.658h3.582c.918 0 1.377.46 1.377 1.378v4.188c0 4.776-2.388 7.164-7.164 7.164h-5.511C8.388 67.388 6 65 6 60.224v-29.76c0-4.776 2.388-7.164 7.164-7.164h5.511c4.776 0 7.164 2.388 7.164 7.164v4.189c0 .918-.459 1.377-1.377 1.377H20.88c-.919 0-1.378-.459-1.378-1.377v-1.268c0-1.58-.202-2.6-.607-3.059-.404-.459-1.396-.689-2.976-.689-1.359 0-2.296.212-2.81.634-.515.423-.772 1.46-.772 3.114v23.918c0 1.653.257 2.692.772 3.114.514.422 1.451.634 2.81.634.698 0 1.204-.019 1.516-.055.312-.037.661-.166 1.047-.386.386-.22.652-.597.8-1.13.146-.533.22-1.258.22-2.177v-1.267c0-.919.459-1.378 1.378-1.378Zm7.164 10.802V24.677c0-.918.46-1.377 1.378-1.377h3.582c.919 0 1.378.459 1.378 1.377v34.72c0 .625.12 1.057.358 1.296.24.238.67.358 1.295.358h6.118c.918 0 1.378.459 1.378 1.377v3.583c0 .918-.46 1.377-1.378 1.377h-12.18c-.735 0-1.24-.137-1.515-.413-.276-.275-.414-.78-.414-1.515Zm30.698-8.708V24.677c0-.918.459-1.377 1.377-1.377h3.583c.918 0 1.377.459 1.377 1.377v35.547c0 4.776-2.388 7.164-7.164 7.164h-5.566c-4.777 0-7.165-2.388-7.165-7.164V24.677c0-.918.46-1.377 1.378-1.377h3.582c.919 0 1.378.459 1.378 1.377v32.075c0 1.69.257 2.83.772 3.417.514.588 1.396.882 2.645.882h.33c1.323 0 2.233-.285 2.729-.855.495-.569.744-1.717.744-3.444Zm9.645 8.708V25.229c0-.735.137-1.24.413-1.516.276-.276.78-.413 1.516-.413h10.25c4.776 0 7.165 2.388 7.165 7.164v9.7c0 .881-.313 1.947-.937 3.196-.184.33-.147.643.11.937 1.176 1.25 1.764 2.719 1.764 4.409v11.518c0 4.776-2.389 7.164-7.165 7.164H70.315c-1.285 0-1.928-.642-1.928-1.928Zm10.526-17.856h-2.535c-.625 0-1.057.119-1.296.358-.238.239-.358.67-.358 1.295v10.14c0 .625.12 1.057.358 1.296.24.238.671.358 1.296.358h1.929c1.47 0 2.507-.22 3.113-.662.607-.44.91-1.47.91-3.086v-5.952c0-1.506-.267-2.498-.8-2.976-.532-.477-1.405-.735-2.617-.771ZM77.37 29.637h-.992c-.625 0-1.057.12-1.296.359-.238.238-.358.67-.358 1.295v8.321c0 .588.12 1.01.358 1.268.24.257.671.386 1.296.386h.992c1.47 0 2.507-.22 3.113-.661.607-.441.91-1.47.91-3.087v-4.133c0-1.617-.303-2.645-.91-3.086-.606-.441-1.644-.662-3.113-.662Z"/></svg>
